X: 2204
T: Australian Waters
R: jig
M: 6/8
K: Dmajor
|:dAG FAD|EG=c ed^c|dAF GFE|FAd gfe|
dAG FAD|EG=c ed^c|dAF GFE|FAD DFA:|
|:dcd efg|fed cBA|dcd efg|fge def|
gbg faf|ecA GBc|dAF GFE|1 FAD DFA:|2 FAD gfe||

